X: 4099
M: C|
L: 1/8
K: G
(uGE) |\
(ge) |\
(3(def) (gf) geeg | dBcB (AG) (3(ABc) |
dfgf gedg | bgag (ab)g2 |\
gabg egdg | BdcA BGAG |\
EGDG BGAG | dBAB G2 |]


